!!!COM: Bach, Johann Sebastian
!!!CDT: 1685/3//-1750/7/28/
!!!OTL@@DE: Christ, der du bist der helle Tag
!!!AGN: 4-Part Chorale
!!!SCT: BH 230
!!!SCT: BWV 273
**harm	**root	**kern	**kern	**kern	**kern
!	!	!bass	!tenor	!alto	!soprno
*	*Iorgan	*Iorgan	*Iorgan	*Iorgan	*Iorgan
*	*	*clefF4	*clefF4	*clefG2	*clefG2
*M4/4	*M4/4	*M4/4	*M4/4	*M4/4	*M4/4
*met(c)	*met(c)	*met(c)	*met(c)	*met(c)	*met(c)
*MM60	*MM60	*MM60	*MM60	*MM60	*MM60
*k[b-e-a-]	*k[b-e-a-]	*k[b-e-a-]	*k[b-e-a-]	*k[b-e-a-]	*k[b-e-a-]
*c:	*c:	*c:	*c:	*c:	*c:
i	4GG	4C	4e-	4g	4cc
=1	=1	=1	=1	=1	=1
i	4GG	4c	4e-	8g	4cc
.	.	.	.	8a	.
IIIb	8BB-	8G	8g	8b-	4ee-
V7b/-VII	8CC	8A	8f	8cc	.
-VII	8FF	8B-	4f	8b-	4dd
viio7	8FF#	8B	.	8a-	.
i	4GG	8c	8e-	4g	4cc
.	.	8B-	8d	.	.
=2	=2	=2	=2	=2	=2
VI	8EE-	8A-y	16c	8cc	4ee-
.	.	.	16d	.	.
III	8BB-	8G	4e-	8b-	.
iv7	8CC	8F	.	8a-	4ff
-VII	8FF	8B-	8d	8b-	.
III;	4BB-;	4E-;	4e-;	4b-;	4gg;
III	4BB-	4E-	8e-	4b-	4gg
.	.	.	8f	.	.
=3	=3	=3	=3	=3	=3
IIIb	4BB-	8e-	8g	4b-	4gg
.	.	8d	8f	.	.
i	4GG	4c	4e-	4cc	8gg
.	.	.	.	.	8aa-
-VII	4FF	4B-	4f	4dd	8bb-
.	.	.	.	.	8aa-
i	4GG	8c	8e-	[4ee-	4gg
.	.	8B-	8g	.	.
=4	=4	=4	=4	=4	=4
ivb	4CC	4A-	4cc	8ee-]	4ff
.	.	.	.	16dd	.
.	.	.	.	16cc	.
V7/III	4FF	4B-	8b-	4dd	4ff
.	.	.	8a-	.	.
III;	4BB-;	4E-;	4g;	4b-;	4ee-;
i	4GG	8c	4g	4cc	4ee-
.	.	8B-	.	.	.
=5	=5	=5	=5	=5	=5
VI	4EE-	8A-	4a-	8cc	4ee-
.	.	8G	.	8dd	.
III	4BB-	8F	4b-	4ee-	4gg
.	.	8E-	.	.	.
-VII	2FF	4.B-	4b-	8ee-	4ff
.	.	.	.	16dd	.
.	.	.	.	16cc	.
.	.	.	4f	4b-	4dd
.	.	8A-	.	.	.
=6	=6	=6	=6	=6	=6
III	4BB-	8G	4.e-	4b-	4ee-
.	.	8E-	.	.	.
-VII	4FF	4B-	.	4b-	4ff
.	.	.	8d	.	.
III;	4BB-;	4E-;	4e-;	4b-;	4gg;
III	4BB-	4E-	4e-	4b-	4gg
=7	=7	=7	=7	=7	=7
III	4BB-	8E-	4e-	4b-	4gg
.	.	8F	.	.	.
III	4BB-	8G	[4e-	4b-	4gg
.	.	8A-	.	.	.
-VII	4FF	4B-	8e-]	8.b-	4ff
.	.	.	8d	.	.
.	.	.	.	16a-	.
V7	4DD	8B	[4d	[4g	4ff
.	.	8G	.	.	.
=8	=8	=8	=8	=8	=8
i	4GG	4c	8d]	4g]	4.ee-
.	.	.	8c	.	.
vii7o/V	4CC#	4F#	8c	4a	.
.	.	.	16d	.	16dd
.	.	.	16e-	.	16cc
v;	4DD;	4G;	4d;	4g;	4b-;
III	4BB-	8E-	8e-	4g	4b-
.	.	8D	8f	.	.
=9	=9	=9	=9	=9	=9
i	4GG	4C	8g	8cc	8ee-
.	.	.	8f	8dd	8ff
i	4GG	8c	8e-	4ee-	4gg
.	.	8B-	8d	.	.
V7b/-VII	4CC	4A	4c	4ee-	4ff
V	4DD	4B	4g	4dd	4gg
=10	=10	=10	=10	=10	=10
i	8GG	8c	8g	8dd	4ee-
V7/-VII	8CC	8F	8a-	4cc	.
V	4DD	4G	8d	.	4dd
.	.	.	8g	8b	.
i;	4GG;	4C;	4e-;	4g;	4cc;
==	==	==	==	==	==
*-	*-	*-	*-	*-	*-
!!chor2scor: -l 2 -s 0.6 -o %b.pmx
!!!YEC: Copyright 2003 by Craig Stuart Sapp
!!!SMA: 371 Bach Chorales, edited by Ludwig Erk, C.F. Peters
!!!PDT: 1850, 1865
!!!ONB: Harmony and Root analysis done manually by Craig Sapp
